X: 1
T:Mylecharaine's March
M:4/4
L:1/8
K:G
g2 G2 bcd2|gab2 agf2|gab2 gdB2|cAF2 G4|!
GAG2 bcd2|gab2 agf2|gab2 gdB2|cAF2 G4||!
